!!!COM:	Josquin des Pres
**kern	**kern
*part2	*part1
*staff2	*staff1
*clefF4	*clefGv2
*k[b-]	*k[b-]
*M2/1	*M2/1
=1-	=1-
[0G	0d
=2	=2
0G]	1e
.	[1d
=3	=3
0G	1d]
.	1B-
=4	=4
0C	1c
.	[1e
=5	=5
0G	2e]
.	2d
.	[1d
=6	=6
0GG	2d]
.	2c
.	2.B-
.	4A
=7	=7
0D	2B-
.	1A
.	2F
=8	=8
1E	2G
.	2.B-
[1D	.
.	4G
.	[2A
=9	=9
1D]	2A]
.	2F
1BB-	2G
.	2B-
=10	=10
1C	2A
.	1G
[1E	.
.	[2c
=11	=11
2E]	2c]
2D	2.B-
[1D	.
.	4A
.	[2A
=12	=12
1D]	2A]
.	1d
1F	.
.	2c
=13	=13
1G	2e
.	1d
[1B-	.
.	2G
=14	=14
2B-]	2d
2A	1c
[1A	.
.	[2F
=15	=15
1A]	2F]
.	2c
1F	2d
.	[2f
=16	=16
1G	2f]
.	2e
1B-	2d
.	[2f
=17	=17
2A	2f]
2G	2e
1B-	2d
.	[2c
=18	=18
2A	2c]
1G	2B-
.	1A
2F	.
=19	=19
2E	2G
2D	2B-
1F	2A
.	[2c
=20	=20
2E	2c]
1D	2B-
.	1A
2C	.
=21	=21
2BB-	1G
1AA	.
.	2F
2GG	[2G
=22	=22
2BB-	2G]
2C	2.A
[1D	.
.	4F
.	[2B-
=23	=23
1D]	4B-]
.	4A
.	2.d
1D	.
.	4c
.	[2A
=24	=24
1C	4A]
.	4G
.	2.c
[1E	.
.	4B-
.	[2G
=25	=25
1E]	4G]
.	4A
.	1B-
[1D	.
.	2A
=26	=26
2D]	2F
2C	2A
2.E	2G
.	[2B-
4D	.
=27	=27
1BB-	1B-]
[1F	2A
.	[2c
=28	=28
2F]	1c]
2E	.
2.G	2B-
.	[2d
4F	.
=29	=29
1D	1d]
1F	2c
.	2A
=30	=30
2E	1c
2C	.
1E	2B-
.	2G
=31	=31
1D	2B-
.	1A
1F	.
.	[2d
=32	=32
2G	4d]
.	4B-
2.A	4c
.	4d
.	2e
4G	.
2B-	2d
=33	=33
2.A	2f
.	2.e
4G	.
2B-	.
.	4d
[2A	2f
=34	=34
4A]	2e
4G	.
4F	2.d
4E	.
2D	.
.	4c
[2G	4B-
.	4A
=35	=35
2G]	2G
2.F	2A
.	2c
4E	.
2G	[2B-
=36	=36
2.F	4B-]
.	4A
.	2c
4E	.
2G	2.B-
[2F	.
.	4A
=37	=37
4F]	2c
4E	.
4D	2.B-
4C	.
2BB-	.
.	4A
2C	4G
.	4F
=38	=38
2E	2G
2.D	2B-
.	2.A
4C	.
2E-X	.
.	4G
=39	=39
2.D	2B-
.	2.A
4C	.
2E	.
.	4G
[2D	[2B-
=40	=40
2D]	4B-]
.	4A
2C	1A
1BB-	.
.	2G
=41	=41
1AA	0A
[1D	.
=42	=42
2D]	1r
2E	.
1F	1A
=43	=43
1G	1G
1GG	[1B-
=44	=44
1.D	2B-]
.	4A
.	4G
.	1A
2E	.
=45	=45
1F	1D
1G	[1d
=46	=46
1GG	2d]
.	2c
[1D	2B-
.	[2A
=47	=47
2D]	2A]
2E	2G
1F	2A
.	2D
=48	=48
1G	1.d
1GG	.
.	2c
=49	=49
1.D	2B-
.	1A
2E	2G
=50	=50
1F	2A
.	2D
1G	[1d
=51	=51
1GG	2d]
.	2c
2.D	2B-
.	[2A
4E	.
=52	=52
2F	2A]
1G	2G
.	1A
2F	.
=53	=53
0G	0G
==	==
*-	*-
